X:1
T:Oswald’s Tree, CM
T:Oswald’s Tree, CM
T:Henry Walford Davies, 1903
T:Public Domain Courtesy of the Cyber Hymnal™
C:Henry Walford Davies, 1903
Z:Public Domain
Z:Courtesy of the Cyber Hymnal™
%%score ( 1 2 ) ( 3 4 )
L:1/8
M:4/4
K:D
V:1 treble 
V:2 treble 
V:3 bass 
V:4 bass 
V:1
 [FA]2 | (A2 B2) [DA]2 | (c2 z [EA]2) x | (d2 c2) [GB]2 | ([FA]2 [DF]2) [CE]2 | (D2 [CE]2) [B,F]2 | %6
 (G2 d2) [Ec]2 | [DB]4 [^DF]2 | ([EG]2 [DF]2) [CE]2 | A2 G2 [DF]2 | [DB]4 [GB]2 | c4 (cd) | %12
 ([Ae]2 [Bd]2) [GB]2 | ([FA]2 [GB]2) [EG]2 | [A,F]4 |] %15
V:2
 x2 | F4 x2 | G3 (B2 F) | A4 x2 | x6 | D2 x4 | G4 x2 | x6 | x6 | D4 x2 | x6 | (G2 E2) A2 | x6 | %13
 x6 | x4 |] %15
V:3
 [D,D]2 | [D,D]4 [F,A,]2 | (A,2 z [G,C]2) x | [F,D]4 [G,D]2 | (D2 A,2) [A,,G,]2 | F,4 [D,B,]2 | %6
 [E,B,]4 [F,^A,]2 | [G,B,]4 [B,,B,]2 | B,4 (CB,) | [F,A,]2 [B,D]2 [A,C]2 | %10
 ([G,B,]2 [F,A,]2) [E,G,]2 | E4 [F,F]2 | [=CF]2 [B,G]2 [E,D]2 | (D2 B,2) [A,,C]2 | [D,D]2 x2 |] %15
V:4
 x2 | x6 | E,3 (B,2 F,) | x6 | A,4 x2 | (B,,2 C,2) x2 | x6 | x6 | (E,2 A,2) G,2 | x6 | x6 | %11
 (A,2 G,2) x2 | x6 | A,4 x2 | x4 |] %15

